X: 13
T:Boatman
M:6/8
L:1/8
K:C
G E2 G2 G|G E2 G2 G|c2 c B2 A|d3 D3|G E2 G2 G|G E2 G2 G|c2 d e2 d| c3 C3 :|
|: c2 d e2 d |c2 B A2 F|F2 F E2 D|d3 D2 D|G E2 G2 G|G E2 G2 G|c2 d e2 d| c3 C3:|

